src/assets/img/svg/doodle11.svg

<svg width="110" height="114" viewBox="0 0 110 114" fill="none" xmlns="http://www.w3.org/2000/svg">
<g clip-path="url(#clip0_106_53)">
<path d="M0.181543 100.709C0.248261 100.116 0.643188 99.5611 1.26361 99.3644C12.9903 95.288 21.6167 83.0326 23.6721 69.8036C15.5898 67.4937 8.42974 61.4228 8.16849 52.5308C8.08653 49.4229 9.0326 46.6309 10.7536 44.9256C13.4064 42.3258 17.798 42.2875 20.9959 44.88C23.2504 46.7 24.8866 49.5831 26.0135 53.7415C27.2129 58.1414 27.5913 62.7486 27.1819 67.267C27.6086 67.3151 28.0644 67.3998 28.4948 67.4149C40.4489 68.6951 52.7029 63.4786 60.4383 53.8216C64.5035 48.7154 67.2066 42.423 68.3381 35.9201C65.1858 34.3989 62.1689 32.5597 59.3131 30.4721C56.1184 28.1464 52.2726 24.8145 50.7095 19.8072C49.219 15.0414 50.5257 8.45837 55.3446 6.10259C57.3451 5.16183 59.5774 5.11346 61.7388 5.99001C65.2305 7.44956 68.5389 11.4206 70.1682 16.1355C72.0986 21.7171 72.6384 27.8418 71.9125 33.9905C82.0481 38.4309 93.3274 39.8016 104.197 37.7277C105.08 37.5606 105.911 38.1539 106.08 39.006C106.247 39.891 105.654 40.7239 104.804 40.8946C93.5623 43.0266 81.9109 41.714 71.4068 37.2987C70.0816 44.0463 67.2212 50.5542 63.0025 55.843C54.6054 66.3584 41.2344 72.0487 28.1972 70.6466C27.7377 70.5948 27.311 70.5468 26.8515 70.495C24.5425 84.7949 15.1411 98.0292 2.38155 102.422C1.54938 102.728 0.605527 102.256 0.333456 101.425C0.260939 101.184 0.22124 100.946 0.247186 100.716L0.181543 100.709ZM24.0465 66.4807C24.3309 62.4812 23.9552 58.4407 22.8934 54.5895C21.9549 51.1186 20.6569 48.7734 18.9487 47.4148C17.3024 46.0965 14.6259 45.6617 13.0182 47.2465C11.933 48.3237 11.3204 50.2204 11.404 52.4288C11.6102 59.4489 17.4628 64.4396 24.0428 66.5136L24.0465 66.4807ZM68.7855 32.5388C69.2764 27.2965 68.7096 22.0017 67.0586 17.1845C65.7597 13.3732 63.1066 10.0756 60.4714 8.97913C59.1374 8.42902 57.9373 8.46041 56.7108 9.02191C53.615 10.539 52.6689 15.3968 53.746 18.8166C55.0481 22.8948 58.4133 25.7728 61.2072 27.8201C63.6004 29.589 66.1509 31.1425 68.7564 32.5022L68.7855 32.5388Z" fill="#3F78E0"/>
</g>
<defs>
<clipPath id="clip0_106_53">
<rect width="102.968" height="98.3916" fill="white" transform="translate(109.301 11.0151) rotate(96.4278)"/>
</clipPath>
</defs>
</svg>

<svg width="110" height="114" viewBox="0 0 110 114" fill="none" xmlns="http://www.w3.org/2000/svg"><g clip-path="url(#clip0_106_53)"><path d="M.182 100.709c.066-.593.461-1.148 1.082-1.345 11.726-4.076 20.353-16.331 22.408-29.56C15.59 67.494 8.43 61.423 8.168 52.53c-.081-3.108.865-5.9 2.586-7.605 2.652-2.6 7.044-2.639 10.242-.046 2.254 1.82 3.89 4.703 5.018 8.861 1.199 4.4 1.577 9.008 1.168 13.526.427.048.882.133 1.313.148 11.954 1.28 24.208-3.936 31.943-13.593 4.066-5.107 6.769-11.399 7.9-17.902-3.152-1.521-6.17-3.36-9.025-5.448-3.195-2.326-7.04-5.658-8.604-10.665-1.49-4.766-.183-11.349 4.636-13.704 2-.941 4.232-.99 6.394-.113 3.492 1.46 6.8 5.43 8.43 10.146 1.93 5.581 2.47 11.706 1.743 17.854 10.136 4.44 21.415 5.812 32.285 3.738a1.62 1.62 0 011.883 1.278 1.627 1.627 0 01-1.276 1.889c-11.242 2.132-22.893.819-33.397-3.596-1.325 6.747-4.186 13.255-8.404 18.544-8.398 10.515-21.769 16.206-34.806 14.804l-1.345-.152c-2.31 14.3-11.71 27.534-24.47 31.927-.833.306-1.776-.166-2.049-.997a1.78 1.78 0 01-.086-.709l-.065-.007zm23.864-34.228c.285-4-.09-8.04-1.153-11.891-.938-3.471-2.236-5.817-3.944-7.175-1.647-1.319-4.323-1.753-5.93-.169-1.086 1.078-1.699 2.974-1.615 5.183.206 7.02 6.059 12.01 12.639 14.085l.004-.033zm44.74-33.942c.49-5.242-.076-10.537-1.727-15.355-1.3-3.81-3.952-7.108-6.588-8.205-1.334-.55-2.534-.519-3.76.043-3.096 1.517-4.042 6.375-2.965 9.795 1.302 4.078 4.667 6.956 7.461 9.003 2.393 1.769 4.944 3.322 7.55 4.682l.028.037z" fill="#3F78E0"/></g><defs><clipPath id="clip0_106_53"><path fill="#fff" transform="rotate(96.428 49.729 54.347)" d="M0 0h102.968v98.392H0z"/></clipPath></defs></svg>
